X: 1
T: New May Moon, The
C: Trad
R: Jig
M: 6/8
L: 1/8
K: D
Z: ABC transcription by Verge Roller
r: 32
|: c | "D" d2 A d2 A | "G" BAB "A" ABc | "D" d2 d "A" ede | "D" f2 d def |
"G" g2 g "D" f2 f | "G" efd "A" cBA | "G" BAG FGA | "A" B2 A AB :|
|: a | "G" b2 "D" b afd | "G" b2 "D" b a3 | "G" b2 "D" b afd | "E7" dcd "A" ecA |
"G" b2 b "D" afd | "A" gfe "D" fed | "G" BAG FGA | "A" B2 A A2 :|
